X: 20632
T: MISS JANET AGNES DRENNAN'S WALTZ
%R: waltz
B: W. Hamilton "Universal Tune-Book" Vol. 2 Glasgow 1846 p.63 #2
S: http://s3-eu-west-1.amazonaws.com/itma.dl.printmaterial/book_pdfs/hamiltonvol2web.pdf
Z: 2016 John Chambers <jc:trillian.mit.edu>
M: 3/4
L: 1/8
K: G
% - - - - - - - - - - - - - - - - - - - - - - - - -
|:\
B2G2D2 | B2G2D2 | c2A2F2 | (ed)(^cd)(cd) |\
B2G2D2 | B2G2D2 | c2A2F2 | G4 :: AG |\
FAD2dc | BdG2ed | cBAGFB | FAd2AG |
FAD2dc | BdG2ed | cBAGFA | G4 :: D2 |\
GFGBD2 | GFGBD2 | A^GAcD2 | A^GAcD2 |\
GFGBD2 | GFGBD2 | (Ac)(FA)(DF) | G4z2 :|
% - - - - - - - - - - - - - - - - - - - - - - - - -

%%sep 1 1 500
%%sep 1 1 500

